X:49
M:6/8
L:1/8
K:G
|:GBd gdB|gdB gdB|A^ce ae^c|ae^c ae^c|GBd gdB|gdB gdB|(AB/c/B) AGF|G3 G,3:|

